X:69
T:Billy Wilson's Clog
S:Zelie from Ottawa
L:1/8
M:4/4
R:Hornpipe
K:D
(3GFE | DFAF GBAG | FAde fdAF | G2gf edcd | (3efe (3dcB (3ABA (3GFE |
DFAF GBAG | FAde fdAF | G2gf edce | dcde d2 :|
cd |: eAA2 fAA2 | (3gag (3fgf eAA2 | (3gag (3fgf edcd | (3efe (3dcB (3ABA (3GFE |
DFAF GBAG | FAde fdAF | G2gf edce | dcde d2 :|
